client/assets/img/icon-signin.svg

<?xml version="1.0" encoding="UTF-8" standalone="no"?>
<svg width="17px" height="21px" viewBox="0 0 17 21" version="1.1" xmlns="http://www.w3.org/2000/svg" xmlns:xlink="http://www.w3.org/1999/xlink" xmlns:sketch="http://www.bohemiancoding.com/sketch/ns">
    <!-- Generator: Sketch 3.4.4 (17249) - http://www.bohemiancoding.com/sketch -->
    <title>Untitled 2</title>
    <desc>Created with Sketch.</desc>
    <defs></defs>
    <g id="Page-1" stroke="none" stroke-width="1" fill="none" fill-rule="evenodd" sketch:type="MSPage">
        <g id="icon-signin" sketch:type="MSLayerGroup" fill="#000000">
            <path d="M7.5,9.1875 L7.5,15.75 L12.5,15.75 L12.5,10.75 L13.75,10.75 L13.75,15.75 C13.7369791,16.1015643 13.6132824,16.3945301 13.3789062,16.6289062 C13.1445301,16.8632824 12.8515643,16.9869791 12.5,17 L7.5,17 L7.5,20.75 L0.68359375,17.3515625 C0.475259375,17.2343744 0.30924541,17.078126 0.185546875,16.8828125 C0.0618483398,16.687499 0,16.4661471 0,16.21875 L0,2 C0.0130208984,1.64843574 0.136717578,1.35546992 0.37109375,1.12109375 C0.605469922,0.886717578 0.898435742,0.763020898 1.25,0.75 L12.5,0.75 C12.8515643,0.763020898 13.1445301,0.886717578 13.3789062,1.12109375 C13.6132824,1.35546992 13.7369791,1.64843574 13.75,2 L13.75,5.75 L12.5,5.75 L12.5,2 L2.5,2 L7.5,4.5 L7.5,7.3125 L11.25,4.5 L11.25,7 L16.25,7 L16.25,9.5 L11.25,9.5 L11.25,12 L7.5,9.1875 Z" id="" sketch:type="MSShapeGroup"></path>
        </g>
    </g>
</svg>

<svg width="17" height="21" viewBox="0 0 17 21" xmlns="http://www.w3.org/2000/svg"><title>Untitled 2</title><path d="M7.5 9.188v6.562h5v-5h1.25v5c-.013.352-.137.645-.37.88-.235.233-.528.357-.88.37h-5v3.75L.684 17.352c-.21-.118-.375-.274-.498-.47C.062 16.688 0 16.467 0 16.22V2c.013-.352.137-.645.37-.88C.606.888.9.764 1.25.75H12.5c.352.013.645.137.88.37.233.235.357.528.37.88v3.75H12.5V2h-10l5 2.5v2.813L11.25 4.5V7h5v2.5h-5V12L7.5 9.187z" fill="#000" fill-rule="evenodd"/></svg>
